X:1
T:Murphy, 10.10.8.10
T:Murphy, 10.10.8.10
T:Lowell Mason, 1837
T:Public Domain Courtesy of the Cyber Hymnal™
C:Lowell Mason, 1837
Z:Public Domain
Z:Courtesy of the Cyber Hymnal™
%%score ( 1 2 ) 3
L:1/8
Q:1/4=115
M:4/4
K:E
V:1 treble 
V:2 treble 
V:3 bass 
V:1
 [EG]3 [EG] [EG]2 [FA]2 | [GB]2 [EG]4 z2 | [FA]4 [EG]2 [EG]2 | [DF]6 z2 | [EG]3 [EG] [EG]2 [FA]2 | %5
 [GB]2 [EG]4 z2 | ([DF]2 [FA]2) [EG]2 [DF]2 | E6 z2 | e4 [Bd]2 [Ac]2 | ([GB]3 [FA] [EG]2) z2 | %10
 e4 [Bd]2 [Ac]2 | ([GB]3 [FA] [EG]2) z2 | [EG]3 [EG] [EG]2 [FA]2 | [GB]2 [EG]4 z2 | %14
 ([DF]2 [FA]2) [EG]2 [DF]2 | E8 |] %16
V:2
 x8 | x8 | x8 | x8 | x8 | x8 | x8 | x8 | (G2 c2) x4 | x8 | (G2 c2) x4 | x8 | x8 | x8 | x8 | x8 |] %16
V:3
 E,3 E, E,2 E,2 | E,2 E,4 z2 | D,4 E,2 E,2 | B,,6 z2 | E,3 E, E,2 E,2 | E,2 E,4 z2 | %6
 B,,4 B,,2 B,,2 | E,6 z2 | E,4 E,2 E,2 | E,6 z2 | E,4 E,2 E,2 | E,6 z2 | E,3 E, E,2 E,2 | %13
 E,2 E,4 z2 | B,,4 B,,2 B,,2 | E,8 |] %16

